source/images/hero.svg

<svg width="1440" height="800" viewBox="0 0 1440 800" fill="none" xmlns="http://www.w3.org/2000/svg">
<g clip-path="url(#clip0)">
<rect width="1440" height="800" fill="#2A2B2A"/>
<path d="M408.383 -97C302.427 -97 213.264 -23.0023 189.78 75.929H416.925C416.925 75.929 385.769 210.454 202.381 217.234C237.082 296.651 316.41 352.406 408.383 352.406C532.137 352.406 633.097 251.467 633.097 127.692C633.097 3.9385 532.137 -97 408.383 -97Z" fill="#080808"/>
<path d="M189.758 75.9514H-41C-41 75.9514 -8.28301 217.569 187.952 217.569C192.88 217.569 197.63 217.412 202.358 217.234C190.36 189.78 183.647 159.494 183.647 127.692C183.647 109.895 185.811 92.5886 189.758 75.9514Z" fill="#080808"/>
<path d="M417.951 75.7728H189.713C185.743 92.4324 183.58 109.761 183.58 127.602C183.58 159.45 190.315 189.758 202.381 217.256C386.661 210.476 417.951 75.7728 417.951 75.7728Z" fill="#34AA51"/>
<path d="M846.78 433.368C785.205 433.368 730.476 462.471 695.462 507.61L812.748 624.896L695.529 742.093C730.543 787.21 785.272 816.269 846.803 816.269C952.536 816.269 1038.24 730.563 1038.24 624.829C1038.24 519.074 952.514 433.368 846.78 433.368Z" fill="#080808"/>
<path d="M653.11 624.718C653.11 580.225 668.967 539.457 695.306 507.7L586.628 399L361 624.629L586.985 850.614L695.506 742.093C694.079 740.264 692.696 738.413 691.358 736.539C667.473 705.54 653.11 666.846 653.11 624.718Z" fill="#080808"/>
<path d="M695.462 507.61L695.418 507.566C695.373 507.61 695.35 507.655 695.305 507.7L695.35 507.745C695.395 507.7 695.44 507.655 695.462 507.61Z" fill="#EA1877"/>
<path d="M695.484 507.61C669.369 538.61 652.062 583.325 653.222 627.416C654.471 674.786 668.142 706.967 691.492 736.406C692.897 738.235 694.035 740.286 695.507 742.07L812.725 624.874L695.484 507.61Z" fill="#F1B114"/>
<path fill-rule="evenodd" clip-rule="evenodd" d="M263.754 654.608C260.609 651.486 257.42 648.364 253.985 645.442C182.954 585.272 76.5961 594.081 16.4255 665.113C-40.6005 732.42 -35.5826 831.418 25.5693 892.793L263.754 654.608Z" fill="#7541D5"/>
<path fill-rule="evenodd" clip-rule="evenodd" d="M253.629 664.332L60.2933 858.85C85.4276 885.01 120.062 900.621 159.202 900.443C235.006 900.086 296.203 838.354 295.846 762.527C295.668 723.41 280.034 689.221 253.629 664.332Z" fill="#080808"/>
<path fill-rule="evenodd" clip-rule="evenodd" d="M-2.55342 360L-79.2051 436.652V640.424H-283L-2.55342 920.871L59.6243 858.693C57.7733 856.731 55.9222 854.768 54.1827 852.694C32.3491 828.452 18.9233 796.538 18.9233 761.412C18.9233 685.809 80.3651 624.523 156.192 624.523C190.314 624.523 221.469 637.012 245.466 657.575C248.276 659.85 250.93 662.281 253.54 664.778L277.871 640.447L-2.55342 360Z" fill="#080808"/>
<path d="M1093.25 110.373L983.282 0.401855L1093.48 -109.792L979.268 -224L755 0.268049L979.246 224.514L1093.32 110.44L1093.25 110.373Z" fill="#080808"/>
<path d="M1431.8 0.379636L1207.55 -223.866L1093.48 -109.792L1203.51 0.24583L1093.32 110.44L1207.53 224.648L1431.8 0.379636Z" fill="#080808"/>
<path d="M1093.48 -109.792L983.282 0.401586L1093.25 -109.591L1203.25 0.401586L1093.25 110.372L1093.32 110.439L1203.51 0.245457L1093.48 -109.792Z" fill="#073C5B"/>
<path d="M1093.25 110.373L983.282 0.4021L1093.25 110.373Z" fill="#F2EA19"/>
<path d="M1204.67 0.245509L1093.32 -110.35L982.502 0.46861L1093.32 111.265" fill="#D825A9"/>
<path d="M1182 557.99H1316.52V400.762H1182V557.99Z" fill="#3B81EA"/>
<path fill-rule="evenodd" clip-rule="evenodd" d="M1181.93 548.601V799.743H1571.88V404.62H1316.48V548.601H1181.93Z" fill="#080808"/>
<path fill-rule="evenodd" clip-rule="evenodd" d="M1181.93 548.601V404.62H1316.48V312H1083V548.601H1181.93Z" fill="#080808"/>
</g>
<defs>
<clipPath id="clip0">
<rect width="1440" height="800" fill="white"/>
</clipPath>
</defs>
</svg>

<svg width="1440" height="800" fill="none" xmlns="http://www.w3.org/2000/svg"><g clip-path="url(#clip0)"><path fill="#2A2B2A" d="M0 0h1440v800H0z"/><path d="M408.383-97C302.427-97 213.264-23.002 189.78 75.929h227.145s-31.156 134.525-214.544 141.305c34.701 79.417 114.029 135.172 206.002 135.172 123.754 0 224.714-100.939 224.714-224.714C633.097 3.939 532.137-97 408.383-97zM189.758 75.951H-41S-8.283 217.57 187.952 217.57c4.928 0 9.678-.157 14.406-.335-11.998-27.454-18.711-57.74-18.711-89.542 0-17.797 2.164-35.103 6.111-51.74z" fill="#080808"/><path d="M417.951 75.773H189.713c-3.97 16.66-6.133 33.988-6.133 51.829 0 31.848 6.735 62.156 18.801 89.654 184.28-6.78 215.57-141.483 215.57-141.483z" fill="#34AA51"/><path d="M846.78 433.368c-61.575 0-116.304 29.103-151.318 74.242l117.286 117.286-117.219 117.197c35.014 45.117 89.743 74.176 151.274 74.176 105.733 0 191.437-85.706 191.437-191.44 0-105.755-85.726-191.461-191.46-191.461zm-193.67 191.35c0-44.493 15.857-85.261 42.196-117.018L586.628 399 361 624.629l225.985 225.985 108.521-108.521a163.072 163.072 0 0 1-4.148-5.554c-23.885-30.999-38.248-69.693-38.248-111.821z" fill="#080808"/><path d="M695.462 507.61l-.044-.044c-.045.044-.068.089-.113.134l.045.045c.045-.045.09-.09.112-.135z" fill="#EA1877"/><path d="M695.484 507.61c-26.115 31-43.422 75.715-42.262 119.806 1.249 47.37 14.92 79.551 38.27 108.99 1.405 1.829 2.543 3.88 4.015 5.664l117.218-117.196L695.484 507.61z" fill="#F1B114"/><path fill-rule="evenodd" clip-rule="evenodd" d="M263.754 654.608c-3.145-3.122-6.334-6.244-9.769-9.166-71.031-60.17-177.389-51.361-237.56 19.671-57.025 67.307-52.008 166.305 9.144 227.68l238.185-238.185z" fill="#7541D5"/><path fill-rule="evenodd" clip-rule="evenodd" d="M253.629 664.332L60.293 858.85c25.135 26.16 59.769 41.771 98.909 41.593 75.804-.357 137.001-62.089 136.644-137.916-.178-39.117-15.812-73.306-42.217-98.195z" fill="#080808"/><path fill-rule="evenodd" clip-rule="evenodd" d="M-2.553 360l-76.652 76.652v203.772H-283L-2.553 920.871l62.177-62.178c-1.85-1.962-3.702-3.925-5.441-5.999-21.834-24.242-35.26-56.156-35.26-91.282 0-75.603 61.442-136.889 137.269-136.889 34.122 0 65.277 12.489 89.274 33.052 2.81 2.275 5.464 4.706 8.074 7.203l24.331-24.331L-2.553 360z" fill="#080808"/><path d="M1093.25 110.373L983.282.402l110.198-110.194L979.268-224 755 .268l224.246 224.246L1093.32 110.44l-.07-.067z" fill="#080808"/><path d="M1431.8.38l-224.25-224.246-114.07 114.074L1203.51.246 1093.32 110.44l114.21 114.208L1431.8.38z" fill="#080808"/><path d="M1093.48-109.792L983.282.402l109.968-109.993 110 109.993-110 109.97.07.067L1203.51.245l-110.03-110.037z" fill="#073C5B"/><path d="M1093.25 110.373L983.282.403l109.968 109.97z" fill="#F2EA19"/><path d="M1204.67.246L1093.32-110.35 982.502.469l110.818 110.796" fill="#D825A9"/><path d="M1182 557.99h134.52V400.762H1182V557.99z" fill="#3B81EA"/><path fill-rule="evenodd" clip-rule="evenodd" d="M1181.93 548.601v251.142h389.95V404.62h-255.4v143.981h-134.55z" fill="#080808"/><path fill-rule="evenodd" clip-rule="evenodd" d="M1181.93 548.601V404.62h134.55V312H1083v236.601h98.93z" fill="#080808"/></g><defs><clipPath id="clip0"><path fill="#fff" d="M0 0h1440v800H0z"/></clipPath></defs></svg>
